X:1
T:Höchsten Nöthen, LM
T:Genevan French Psalter, 1542
T:Höchsten Nöthen, LM
T:Public Domain
C:Genevan French Psalter, 1542
Z:Public Domain
%%score ( 1 2 ) ( 3 4 )
L:1/8
M:2/4
K:G
V:1 treble 
V:2 treble 
V:3 bass 
V:4 bass 
V:1
 [DG]2 | [EG]2 [FA]2 | [GB]2 [DG]2 | [Ec]2 [FA]2 | G2 [GB]2 | [Gc]2 [GB]2 | [FA]2 [EG]2 | %7
 [^DF]2 [EG]2 | [FA]2 [Gd]2 | [Gc]2 [GB]2 | [EA]2 [DF]2 | [B,G]2 [^CE]2 | D2 [DB]2 | [Ec]2 [DB]2 | %14
 [DA]2 [B,G]2 | [DB]2 [DA]2 | [B,G]2 |] %17
V:2
 x2 | x4 | x4 | x4 | G2 x2 | x4 | x4 | x4 | x4 | x4 | x4 | x4 | D2 x2 | x4 | x4 | x4 | x2 |] %17
V:3
 [G,B,]2 | [E,B,]2 [D,D]2 | [G,,D]2 [B,,D]2 | [A,,C]2 [D,C]2 | [G,B,]2 [G,D]2 | [C,E]2 [G,D]2 | %6
 [D,D]2 [E,B,]2 | [B,,B,]2 [E,B,]2 | [D,D]2 [B,,D]2 | [C,E]2 [G,,D]2 | [A,,^C]2 [D,A,]2 | %11
 [E,G,]2 [A,,G,]2 | [D,F,]2 [G,,G,]2 | [C,G,]2 G,2 | [D,F,]2 [E,G,]2 | [D,G,]2 [D,F,]2 | %16
 [G,,G,]2 |] %17
V:4
 x2 | x4 | x4 | x4 | x4 | x4 | x4 | x4 | x4 | x4 | x4 | x4 | x4 | x2 G,2 | x4 | x4 | x2 |] %17

